app/img/fav-icon.svg

<svg width="19" height="17" viewBox="0 0 19 17" fill="none" xmlns="http://www.w3.org/2000/svg">
<path d="M9.09995 15.7C8.89995 15.7 8.59995 15.6 8.49995 15.5C5.59995 13 0.699951 9.70001 0.699951 5.80001C0.699951 4.40001 1.19995 3.10001 1.99995 2.20001C2.89995 1.30001 4.09995 0.700012 5.39995 0.700012C6.39995 0.700012 7.29995 1.00001 8.09995 1.60001C8.49995 1.90001 8.89995 2.30001 9.19995 2.70001C9.49995 2.30001 9.89995 1.90001 10.3 1.60001C11 1.00001 11.9 0.700012 12.9 0.700012C14.2 0.700012 15.4 1.20001 16.3 2.20001C17.2 3.10001 17.7 4.40001 17.7 5.80001C17.7 9.70001 12.7 13.1 9.89995 15.5C9.59995 15.6 9.39995 15.7 9.09995 15.7Z" stroke="black" stroke-width="1.4" stroke-miterlimit="10"/>
</svg>

<svg width="19" height="17" fill="none" xmlns="http://www.w3.org/2000/svg"><path d="M9.1 15.7c-.2 0-.5-.1-.6-.2C5.6 13 .7 9.7.7 5.8c0-1.4.5-2.7 1.3-3.6C2.9 1.3 4.1.7 5.4.7c1 0 1.9.3 2.7.9.4.3.8.7 1.1 1.1.3-.4.7-.8 1.1-1.1.7-.6 1.6-.9 2.6-.9 1.3 0 2.5.5 3.4 1.5.9.9 1.4 2.2 1.4 3.6 0 3.9-5 7.3-7.8 9.7-.3.1-.5.2-.8.2z" stroke="#000" stroke-width="1.4" stroke-miterlimit="10"/></svg>
